X:459
T:Reel 459
M:4/4
K:Emin
L:1/8
ef|gfed BAGF|GBAF E3F||GFAF GABc|dBcd Beef:||2GBAF GFBA|Beed e3|f|gfef gebe|gebe afdf|gfef gebe|fefe edBA|GFGB e3f|gefe dBAc|Beef g3a|fefd e2|
